X:1
T:Miss Admiral Gordon's Strathspey
M:4/4
L:1/8
C:William Marshall (c.1775)
R:Strathspey
F:http://www.betsyhooper.com/sitebuildercontent/sitebuilderfiles/Scot4 2008-03-14 18:56:12 UT
B: Marshall's Scottish Melodies
B: Marshall's Strathspey Reels (1781)
K:A
E \
| "A"A/A/A A>A A>E A<f | "A7"e<cB>A "D" F2 F>E \
| "A"A/A/A A>A "F#m"A>E A<f | "Bm"e>f a<c "E7"e3 ||
f \
| "A"e>f a<c "A7"e<cB>A | "D"B>c d/c/B/A/ "E7"F2 F>E \
| "A"A/A/A A>A "F#m"A>E A<f | "D"e<c "E7"B>c "A"A2 A |]
E \
| "A"C>EA>E "D"F>E"A"A>B | "A7"c>e d/c/B/A/ "D"F2 FE \
| "A"C>EA>E "D"F>E"A"A>B | "F#m"c>d e/f/g/a/ "E7" e3 ||
g \
| "A"a>gf>e "A7"f>ed>c | "D"Bc d/c/B/A/ "E7"F2 F>E \
| "A"A/A/A A>A "F#m"A>E A<f | "D"e<c "E7"B>c "A"A2 A |]
